X:1
T: The Rocks of Cashel
C:
R:Strathspey
Q: 128
K:D
M:4/4
L:1/16
|:F2|D3F A3B BAGF A4|D3F A3F GE3 E3F|D3F A3B A2GF A3c|d3B A3F GE3 E2A2|
D3F d3f fedc d4|A3A d3f e3d ef3|D3A d3g fedc d4|d3B A3F GE3 E2F2|
((3D2E2F2) ((3F2E2F2) ((3F2E2F2) ((3F2E2F2) |((3D2E2F2) ((3F2E2F2) GE3 E3F|((3D2E2F2) ((3F2E2F2) F3A B3c|d3B A3F GE3 E2FE|
D3F d3f fedc d4|A3A d3f e3d ef3|D3A d3g fedc d4|d3B A3F GE3 E2:|
